X: 26005
T: Mayor Harrison's Fedora
R: reel
M: 4/4
K: Edorian
EF|:GEEG B2 AF|GFGA BAGE|FD D/D/D A2 FA|dcdB AGFA|
GE F/G/A B2 AF|~G3 A ~B3 c|dedB AG F/G/A|1 GEFD E2 EF:|2 GEFD E2: ~A2||
|:Bcdf ~e2 ef|edef edBA|GABc d2 de|dBgf edBA|
Bcdf ~e2 ef|gagf edBc|dedB AG F/G/A|1 GEFD E2 ~A2:|2 GEFD E2: EF||
|:GABA G2 Bc|d2 AG FD D/D/D|E^DEG BABd|g/f/e fd e2 ge|
dedB AG F/G/A|GFEF GABc|dedB AG F/G/A|1 GEFD E2 EF:|2 GEFD E2:|

